src/assets/svg/ic_status_call_outbound.svg

<svg xmlns="http://www.w3.org/2000/svg" width="16" height="16">
    <path d="M6.956 3.96c-.074.193.038.312.164.437L11.222 8.5c.126.125.244.238.438.164.194-.075.266-.158.323-.354l1.679-5.78a.438.438 0 00-.121-.45c-.114-.115-.303-.142-.482-.088L7.315 3.631c-.196.058-.285.135-.359.329zm-4.824.384c-.47.471-.808 1.076-.902 1.599-.235 1.291.464 3.739 2.57 5.843a.036.036 0 01.011.01l.006.007a.055.055 0 01.017.016c2.104 2.105 4.552 2.805 5.844 2.569.522-.093 1.127-.432 1.599-.9l.453-.404c.258-.261.274-.661.039-.897l-1.711-1.712c-.237-.235-.637-.219-.898.04l-.253.254-.152.154-.198.202c-.691.691-1.761.741-2.394.112l-.889-.889-.89-.89c-.629-.632-.579-1.702.112-2.394l.201-.198.154-.152.254-.254c.258-.26.275-.66.041-.898L3.433 3.851c-.236-.235-.636-.219-.896.04l-.405.453z" fill="#3d464d"/>
</svg>

<?xml version="1.0" encoding="iso-8859-1"?>
<!-- Generator: Adobe Illustrator 16.0.4, SVG Export Plug-In . SVG Version: 6.00 Build 0)  -->
<!DOCTYPE svg PUBLIC "-//W3C//DTD SVG 1.1//EN" "http://www.w3.org/Graphics/SVG/1.1/DTD/svg11.dtd">
<svg version="1.1" id="artwork" xmlns="http://www.w3.org/2000/svg" xmlns:xlink="http://www.w3.org/1999/xlink" x="0px" y="0px"
	 width="16px" height="16px" viewBox="0 0 16 16" style="enable-background:new 0 0 16 16;" xml:space="preserve">
<path style="fill:#3D464D;" d="M6.956,3.96C6.882,4.153,6.994,4.272,7.12,4.397L11.222,8.5c0.126,0.125,0.244,0.238,0.438,0.164
	c0.194-0.075,0.266-0.158,0.323-0.354l1.679-5.78c0.053-0.179-0.006-0.335-0.121-0.45c-0.114-0.115-0.303-0.142-0.482-0.088
	L7.315,3.631C7.119,3.689,7.03,3.766,6.956,3.96z"/>
<path style="fill:#3D464D;" d="M2.132,4.344C1.662,4.815,1.324,5.42,1.23,5.943C0.995,7.234,1.694,9.682,3.8,11.786
	c0.004,0.002,0.009,0.007,0.011,0.01c0.002,0.001,0.004,0.004,0.006,0.007c0.003,0.002,0.006,0.004,0.007,0.005
	c0.003,0.002,0.007,0.007,0.01,0.011c2.104,2.105,4.552,2.805,5.844,2.569c0.522-0.093,1.127-0.432,1.599-0.9l0.453-0.404
	c0.258-0.261,0.274-0.661,0.039-0.897l-1.711-1.712c-0.237-0.235-0.637-0.219-0.898,0.04l-0.253,0.254l-0.152,0.154l-0.198,0.202
	c-0.691,0.691-1.761,0.741-2.394,0.112l-0.889-0.889L4.384,9.458C3.755,8.826,3.805,7.756,4.496,7.064l0.201-0.198l0.154-0.152
	L5.105,6.46C5.363,6.2,5.38,5.8,5.146,5.562L3.433,3.851c-0.236-0.235-0.636-0.219-0.896,0.04L2.132,4.344z"/>
</svg>
